Assets/Social Icons/LinkedIn.svg

<svg width="24" height="24" viewBox="0 0 24 24" fill="none" xmlns="http://www.w3.org/2000/svg">
<path fill-rule="evenodd" clip-rule="evenodd" d="M0 12C0 5.3726 5.3726 0 12 0C18.6274 0 24 5.3726 24 12C24 18.6274 18.6274 24 12 24C5.3726 24 0 18.6274 0 12ZM8.48025 9.9389H5.7608V18.1098H8.48025V9.9389ZM8.6594 7.41135C8.64175 6.6102 8.06885 6 7.1385 6C6.2082 6 5.6 6.6102 5.6 7.41135C5.6 8.1959 6.19025 8.82365 7.1032 8.82365H7.1206C8.06885 8.82365 8.6594 8.1959 8.6594 7.41135ZM18.2877 13.4249C18.2877 10.9152 16.9461 9.74705 15.1566 9.74705C13.7127 9.74705 13.0662 10.5401 12.7053 11.0964V9.93915H9.98555C10.0214 10.7058 9.98555 18.11 9.98555 18.11H12.7053V13.5467C12.7053 13.3025 12.723 13.0589 12.7949 12.8841C12.9915 12.3962 13.439 11.8911 14.1903 11.8911C15.1747 11.8911 15.5682 12.6404 15.5682 13.7383V18.1098H18.2876L18.2877 13.4249Z" fill="white"/>
</svg>

<svg width="24" height="24" fill="none" xmlns="http://www.w3.org/2000/svg"><path fill-rule="evenodd" clip-rule="evenodd" d="M0 12C0 5.373 5.373 0 12 0s12 5.373 12 12-5.373 12-12 12S0 18.627 0 12zm8.48-2.061H5.76v8.17h2.72V9.94zm.18-2.528C8.641 6.611 8.068 6 7.137 6 6.208 6 5.6 6.61 5.6 7.411c0 .785.59 1.413 1.503 1.413h.018c.948 0 1.538-.628 1.538-1.413zm9.628 6.014c0-2.51-1.342-3.678-3.131-3.678-1.444 0-2.09.793-2.452 1.35V9.938h-2.72c.036.767 0 8.171 0 8.171h2.72v-4.563c0-.245.018-.488.09-.663.197-.488.644-.993 1.395-.993.985 0 1.378.75 1.378 1.847v4.372h2.72v-4.685z" fill="#fff"/></svg>
